X:1
T:Title
%%score { 1 | ( 2 3 ) }
L:1/8
M:3/4
K:Ab
V:1 treble nm="Grand Piano"
V:2 bass 
V:3 bass 
V:1
 z2 z2[Q:1/4=100] Ee | e3 [Ec] [FA][DF] | [DF]2 [CE]2 [CE][EA] | A2 G2 Ed | [Fd]2 c2 Ee | %5
 e3 [Ec] [FA][DF] | [DF]2 [CE]2 [CE][Ec] | c3 B Bc |[M:2/4] [A,CA]4 |[M:1/4] AA | %10
[M:3/4] [DFA]3 [Fd] [Fd][Af] | e2 c2 cc | e3 [Ec] [=Dc][DB] | B4 E[Ge] | [Ae]3 [Ec] [FA][DF] | %15
 [DF]2 [CE]2 [CE][Ec] | c3 B Bc |[M:2/4] [CA]4 |] %18
V:2
 z2 z2 [A,C][A,CE] | [A,CE]3 [A,,A,] [D,A,][D,A,] | [A,,A,]2 [A,,A,]2 [A,,A,][C,A,] | %3
 [E,CE]2 [E,B,E]2 [G,B,][E,G,E] | z2 E2 [A,C][A,CE] | [A,CE]3 [A,,A,] [D,A,][D,A,] | %6
 [A,,A,]2 [A,,A,]2 [A,,A,][A,,A,] | [E,G,E]3 [E,G,D] [E,G,D][E,G,E] |[M:2/4] A,,4 |[M:1/4] A,A, | %10
[M:3/4] D,3 [D,A,] [D,A,][D,D] | [A,CA]2 [A,EA]2 [A,E][A,E] | %12
 [A,CA]3[K:bass] [A,,A,] [B,,A,][B,,A,] | [E,G,E]4 [E,D][E,D] | [A,C]3 [A,,A,] [D,A,][D,A,] | %15
 [A,,A,]2 [A,,A,]2 [A,,A,][A,,A,] | [E,G,E]3 [E,G,D] [E,G,D][E,G,E] |[M:2/4] [A,,A,]4 |] %18
V:3
 x6 | x6 | x6 | x6 | [A,,A,]4 z2 | x6 | x6 | x6 |[M:2/4] x4 |[M:1/4] x2 |[M:3/4] x6 | x6 | %12
 x3[K:bass] x3 | x6 | x6 | x6 | x6 |[M:2/4] x4 |] %18

